assets/mailcom/original.svg

<svg viewBox="0 0 24 24" xmlns="http://www.w3.org/2000/svg" fill="#004788"><path d="m18.017-.0085h-18.017v15.6685c0 1.4057.96 2.5714 2.2457 2.9143l21.7543 5.4342v-18.017c.0172-3.3086-2.6743-6-5.9828-6zm3 15.6685h-3.017v-6.8743c0-.6685-.223-2.2285-2.2115-2.2285-1.32 0-2.28.9085-2.28 2.2285v6.8743h-3.0171v-6.8743c0-.6685-.2057-2.2285-2.1943-2.2285-1.3543 0-2.28.9085-2.28 2.2285v6.8743h-3.0171v-12.0514h5.297c1.5943 0 2.8971.6343 3.7371 1.6629.8915-1.0286 2.2115-1.6629 3.7372-1.6629 3.2914 0 5.2285 2.1771 5.2285 5.2457z"/></svg>

<svg xmlns="http://www.w3.org/2000/svg" fill="#004788" viewBox="0 0 24 24"><path d="M18.017-.008H0V15.66c0 1.406.96 2.571 2.246 2.914L24 24.008V5.993c.017-3.31-2.674-6-5.983-6zm3 15.668H18V8.786c0-.669-.223-2.229-2.211-2.229-1.32 0-2.28.909-2.28 2.229v6.874H10.49V8.786c0-.669-.205-2.229-2.194-2.229-1.354 0-2.28.909-2.28 2.229v6.874H3V3.609h5.297c1.594 0 2.897.634 3.737 1.663.892-1.03 2.212-1.663 3.737-1.663C19.063 3.609 21 5.786 21 8.854z"/></svg>
